icons/evolvere-blue-folders-flat-vivid-dark-fallback/devices/64/drive-harddisk-usb.svg

<?xml version="1.0" encoding="UTF-8" standalone="no"?>
<!-- Created with Inkscape (http://www.inkscape.org/) -->

<svg
   xmlns:dc="http://purl.org/dc/elements/1.1/"
   xmlns:cc="http://creativecommons.org/ns#"
   xmlns:rdf="http://www.w3.org/1999/02/22-rdf-syntax-ns#"
   xmlns:svg="http://www.w3.org/2000/svg"
   xmlns="http://www.w3.org/2000/svg"
   xmlns:sodipodi="http://sodipodi.sourceforge.net/DTD/sodipodi-0.dtd"
   xmlns:inkscape="http://www.inkscape.org/namespaces/inkscape"
   width="64"
   height="64"
   id="svg13094"
   version="1.1"
   inkscape:version="0.91+devel r"
   sodipodi:docname="drive-harddisk-usb.svg">
  <sodipodi:namedview
     id="base"
     pagecolor="#ffffff"
     bordercolor="#666666"
     borderopacity="1.0"
     inkscape:pageopacity="0"
     inkscape:pageshadow="2"
     inkscape:zoom="11.313709"
     inkscape:cx="30.520485"
     inkscape:cy="32.240285"
     inkscape:document-units="px"
     inkscape:current-layer="svg13094"
     showgrid="true"
     inkscape:snap-bbox="true"
     inkscape:bbox-paths="true"
     inkscape:bbox-nodes="true"
     inkscape:snap-bbox-edge-midpoints="true"
     inkscape:snap-bbox-midpoints="true"
     inkscape:object-paths="true"
     inkscape:snap-intersection-paths="true"
     inkscape:object-nodes="true"
     inkscape:snap-smooth-nodes="true"
     inkscape:snap-midpoints="true"
     inkscape:snap-object-midpoints="true"
     inkscape:snap-center="true"
     showguides="true"
     inkscape:guide-bbox="true"
     inkscape:window-width="1920"
     inkscape:window-height="1023"
     inkscape:window-x="-10"
     inkscape:window-y="35"
     inkscape:window-maximized="1"
     inkscape:snap-global="true"
     fit-margin-top="0"
     fit-margin-left="0"
     fit-margin-right="0"
     fit-margin-bottom="0"
     showborder="true"
     inkscape:showpageshadow="false"
     inkscape:snap-page="true">
    <inkscape:grid
       type="xygrid"
       id="grid3075"
       empspacing="5"
       visible="true"
       enabled="true"
       snapvisiblegridlinesonly="true"
       originx="1.6362304e-08px"
       originy="18px" />
  </sodipodi:namedview>
  <defs
     id="defs13096" />
  <metadata
     id="metadata13099">
    <rdf:RDF>
      <cc:Work
         rdf:about="">
        <dc:format>image/svg+xml</dc:format>
        <dc:type
           rdf:resource="http://purl.org/dc/dcmitype/StillImage" />
        <dc:title></dc:title>
      </cc:Work>
    </rdf:RDF>
  </metadata>
  <path
     id="path3989"
     d="M 0,5.90625 0,57.5 0.09375,57.59375 C 0.0402232,57.753417 0,57.92673 0,58.09375 l 0,2.8125 C 0,62.611986 2.899,64 6.5,64 l 51,0 c 3.601,0 6.5,-1.388014 6.5,-3.09375 l 0,-2.8125 c 0,-0.16702 -0.04022,-0.340333 -0.09375,-0.5 L 64,57.5 64,5.90625 l -64,0 z"
     style="color:#000000;display:inline;overflow:visible;visibility:visible;fill:#43556a;fill-opacity:1;fill-rule:nonzero;stroke:none;stroke-width:2.28571415;marker:none;enable-background:accumulate"
     inkscape:connector-curvature="0" />
  <path
     inkscape:connector-curvature="0"
     style="fill:#1f0700;fill-opacity:0.06978802;fill-rule:nonzero"
     d="M 6.5,0 C 4.5972927,0 2.9053782,0.38675065 1.71875,1 L 32,1 62.28125,1 C 61.094622,0.38675065 59.402707,0 57.5,0 L 32,0 6.5,0 Z"
     id="path4444" />
  <path
     inkscape:connector-curvature="0"
     id="path4019"
     d="m 6.5,0 51,0 C 61.101,0 64,1.3732106 64,3.0789476 l 0,2.842105 C 64,7.6267895 61.101,9 57.5,9 L 6.5,9 C 2.899,9 1.6362304e-8,7.6267895 1.6362304e-8,5.9210526 l 0,-2.842105 C 1.6362304e-8,1.3732106 2.899,0 6.5,0 Z"
     style="color:#000000;display:inline;overflow:visible;visibility:visible;fill:#94a7bc;fill-opacity:1;fill-rule:nonzero;stroke:none;stroke-width:0.62299293;marker:none;enable-background:accumulate" />
  <path
     inkscape:connector-curvature="0"
     id="path3919"
     d="m 7,2.3684211 50,0 c 1.108,0 2,0.4225263 2,0.9473684 l 0,2.368421 c 0,0.5248421 -0.892,0.9473684 -2,0.9473684 l -50,0 c -1.108,0 -2,-0.4225263 -2,-0.9473684 L 5,3.3157895 C 5,2.7909474 5.892,2.3684211 7,2.3684211 Z"
     style="color:#000000;display:inline;overflow:visible;visibility:visible;opacity:1;fill:#43556a;fill-opacity:1;fill-rule:nonzero;stroke:none;stroke-width:2.28571415;stroke-linecap:butt;stroke-linejoin:miter;stroke-miterlimit:4;stroke-dasharray:none;stroke-dashoffset:0;stroke-opacity:1;marker:none;enable-background:accumulate" />
  <path
     inkscape:connector-curvature="0"
     style="color:#000000;display:inline;overflow:visible;visibility:visible;fill:#f77c21;fill-opacity:1;fill-rule:nonzero;stroke:none;stroke-width:0.76123381;marker:none;enable-background:accumulate"
     d="m 23,5 -1,1 0,0.6308594 20,0 L 42,6 41,5 23,5 Z"
     id="path4321" />
  <rect
     ry="0"
     rx="0"
     y="9"
     x="52"
     height="55"
     width="2"
     id="rect3950"
     style="color:#000000;display:inline;overflow:visible;visibility:visible;fill:#162f4d;fill-opacity:0.35241502;fill-rule:nonzero;stroke:none;stroke-width:0.62299293;marker:none;enable-background:accumulate" />
  <rect
     ry="0"
     rx="0"
     y="9"
     x="10"
     height="55"
     width="2"
     id="rect3985"
     style="color:#000000;display:inline;overflow:visible;visibility:visible;fill:#779dc9;fill-opacity:0.23076926;fill-rule:nonzero;stroke:none;stroke-width:0.62299293;marker:none;enable-background:accumulate" />
  <path
     sodipodi:nodetypes="scsccccccccccccsssccccccsscsccccsccccccsccccccccccccccccccsss"
     style="color:#000000;fill:#b6cfed;fill-opacity:0.60107332;fill-rule:nonzero;stroke:none;stroke-width:0.62299293;marker:none;visibility:visible;display:inline;overflow:visible;enable-background:accumulate;opacity:1;stroke-linecap:butt;stroke-linejoin:miter;stroke-miterlimit:4;stroke-dasharray:none;stroke-dashoffset:0;stroke-opacity:1"
     id="path3068"
     inkscape:connector-curvature="0"
     d="m 21.142878,31.229896 c 0,1.361673 0.824246,2.528296 1.993663,3.051813 l 0,2.769428 c 0,0.988941 0.618537,1.920075 1.362331,2.590909 0.0079,0.0072 0.0086,0.01991 0.01661,0.02699 l 0,0.0135 c 1.2e-5,1.4e-5 0.03321,0.04046 0.03323,0.04048 1.42e-4,1.64e-4 0.02863,0.03639 0.03323,0.04048 0.0046,0.0041 0.01377,-0.0024 0.01661,0 0.0028,0.0024 -0.0027,0.01117 0,0.01349 0.0112,0.0093 0.03358,0.01455 0.04984,0.02699 0.0054,0.0046 0.01096,0.0091 0.01661,0.0135 0.01785,0.01265 5.514537,4.172605 5.582245,4.223723 0.263835,0.272419 0.455093,0.647462 0.465189,0.985085 l 0,0.85606 c -1.665595,0.558282 -2.874195,2.126125 -2.874195,3.958613 -2e-6,2.300853 1.891146,4.15904 4.219913,4.15904 2.329471,0 4.219917,-1.858186 4.219917,-4.159048 -3e-6,-1.83285 -1.207637,-3.400388 -2.874197,-3.958612 l 0,-0.829073 c 0,0.0047 -3.11e-4,-0.0208 0,-0.02699 3.12e-4,-0.0062 0.002,0.0027 0,-0.02699 l 0,-4.169744 c 0.01077,-0.337211 0.198705,-0.684522 0.465189,-0.958098 0.03367,-0.02541 1.385943,-1.057046 2.77451,-2.105112 0.702872,-0.530515 1.414976,-1.05828 1.94382,-1.457387 0.264431,-0.199543 0.476125,-0.368683 0.631335,-0.485784 0.0776,-0.05855 0.140702,-0.103234 0.182753,-0.134944 0.02102,-0.01586 0.03882,-0.01869 0.04984,-0.02699 0.0055,-0.0041 0.01127,-0.01979 0.01661,-0.02699 0.01521,-0.01193 0.03946,-0.01832 0.04984,-0.02699 0.0032,-0.0025 -0.0032,-0.01078 0,-0.0135 0.0032,-0.0027 0.01152,0.0046 0.01661,0 0.0051,-0.0046 0.03309,-0.05381 0.03323,-0.05398 1.8e-5,-2e-5 0.03322,-0.02697 0.03323,-0.02699 l 0,-0.0135 0.01661,-0.0135 c 0.0029,-0.0026 -0.0029,-0.01084 0,-0.0135 0.0067,-0.01338 0.01661,-0.02699 0.01661,-0.02699 0.732523,-0.669587 1.345721,-1.585373 1.345721,-2.56392 l 5e-6,-1.952823 1.877363,0 0,-6.107143 -6.458197,0 0,6.107143 1.889393,0 c 0,0.564813 -6e-6,0.567358 -6e-6,1.993303 -0.0097,0.337424 -0.197218,0.68256 -0.465189,0.958099 l -4.419281,3.34659 0,-14.911219 2.914865,0 L 31.999814,16 l -4.320051,6.315344 3.032686,0 0,19.080962 -4.41928,-3.333095 c -0.264738,-0.273431 -0.455389,-0.647239 -0.465187,-0.985085 0,-1.163298 1.59e-4,-1.906275 0,-2.77983 1.196913,-0.513533 2.043501,-1.687741 2.043501,-3.0684 0,-1.85165 -1.517845,-3.366953 -3.372611,-3.366953 -1.854761,0 -3.355994,1.515303 -3.355994,3.366953 z" />
</svg>

<svg xmlns="http://www.w3.org/2000/svg" viewBox="0 0 64 64"><path d="m0 5.906v51.594l.094.094c-.054.16-.094.333-.094.5v2.813c0 1.706 2.899 3.094 6.5 3.094h51c3.601 0 6.5-1.388 6.5-3.094v-2.813c0-.167-.04-.34-.094-.5l.094-.094v-51.594h-64" fill="#43556a" color="#000"/><path d="m6.5 0c-1.903 0-3.595.387-4.781 1h30.28 30.28c-1.187-.613-2.879-1-4.781-1h-25.5-25.5" fill="#1f0700" fill-opacity=".07"/><g color="#000"><path d="m6.5 0h51c3.601 0 6.5 1.373 6.5 3.079v2.842c0 1.706-2.899 3.079-6.5 3.079h-51c-3.601 0-6.5-1.373-6.5-3.079v-2.842c0-1.706 2.899-3.079 6.5-3.079" fill="#94a7bc"/><path d="m7 2.368h50c1.108 0 2 .423 2 .947v2.368c0 .525-.892.947-2 .947h-50c-1.108 0-2-.423-2-.947v-2.368c0-.525.892-.947 2-.947" fill="#43556a"/><path d="m23 5l-1 1v.631h20v-.631l-1-1h-18" fill="#f77c21"/><path fill="#162f4d" fill-opacity=".352" d="m52 9h2v55h-2z"/><path fill="#779dc9" fill-opacity=".231" d="m10 9h2v55h-2z"/><path d="m21.14 31.23c0 1.362.824 2.528 1.994 3.052v2.769c0 .989.619 1.92 1.362 2.591.008.007.009.02.017.027v.014c0 0 .033.04.033.04 0 0 .029.036.033.04.005.004.014-.002.017 0 .003.002-.003.011 0 .013.011.009.034.015.05.027.005.005.011.009.017.014.018.013 5.515 4.173 5.582 4.224.264.272.455.647.465.985v.856c-1.666.558-2.874 2.126-2.874 3.959 0 2.301 1.891 4.159 4.22 4.159 2.329 0 4.22-1.858 4.22-4.159 0-1.833-1.208-3.4-2.874-3.959v-.829c0 .005 0-.021 0-.027 0-.006.002.003 0-.027v-4.17c.011-.337.199-.685.465-.958.034-.025 1.386-1.057 2.775-2.105.703-.531 1.415-1.058 1.944-1.457.264-.2.476-.369.631-.486.078-.059.141-.103.183-.135.021-.016.039-.019.05-.027.005-.004.011-.02.017-.027.015-.012.039-.018.05-.027.003-.002-.003-.011 0-.014.003-.003.012.005.017 0 .005-.005.033-.054.033-.054 0 0 .033-.027.033-.027v-.014l.017-.014c.003-.003-.003-.011 0-.014.007-.013.017-.027.017-.027.733-.67 1.346-1.585 1.346-2.564v-1.953h1.877v-6.107h-6.458v6.107h1.889c0 .565 0 .567 0 1.993-.01.337-.197.683-.465.958l-4.419 3.347v-14.911h2.915l-4.319-6.315-4.32 6.315h3.03v19.08l-4.419-3.333c-.265-.273-.455-.647-.465-.985 0-1.163 0-1.906 0-2.78 1.197-.514 2.044-1.688 2.044-3.068 0-1.852-1.518-3.367-3.373-3.367-1.855 0-3.356 1.515-3.356 3.367" fill-opacity=".601" fill="#b6cfed"/></g></svg>
